X: 129
T: No_63_In_the_Medicine_Man's_House.krn
N: Derived from No_63_In_the_Medicine_Man's_House.krn
%%abc-version 2.0
%%abcx-abcm2ps-target-version 5.9.1 (29 Sep 2008)
%%abc-creator hum2abc beta
%%abcx-conversion-date 2019/03/15 08:37:56
%%humdrum-veritas 1475848752
%%humdrum-veritas-data 3705124281
%%linebreak <none>
%%barnumbers 0
L: 1/8
M: 2/4
K: Ab clef=bass
[K:clef=bass][M:2/4]F,2C3/C/ | 
C2C3/A,/ | 
A,3/G,/F,2 ]|:  
A,2C3/A,/ | 
A,2A,3/G,/ | 
F,3/A,/F,2 | 
(A,3/G,/) A,3/A,/ | 
A,4 ||  
[M:3/4]A,3/G,/F,2!fermata!F,2 ||  
[M:2/4]A,3/F,/ A,3/A,/ ||  
[M:3/4](A,3/G,/)F,2F, z ||  
[M:2/4]F,3/F,/ F,3/F,/ | 
F,3/F,/ F, z | 
F,3/F,/F,2- | 
F,4 :|]  



% FRACTION = 0.499817BUT SHOULD BE 0
% FRACTION = 0.499817BUT SHOULD BE 0
